dist/assets/images/icons/arrow.svg

<svg width="71" height="37" viewBox="0 0 71 37" fill="none" xmlns="http://www.w3.org/2000/svg">
<path d="M54.5889 28.0338L54.5889 28.0339L54.5849 28.0365C51.5922 29.9766 48.8213 31.614 46.3482 32.9038C44.9641 33.6269 43.4417 34.3598 42.019 34.9126C40.6041 35.4623 39.2594 35.8455 38.2409 35.8455C37.5766 35.8455 36.9877 35.6813 36.6402 35.2192L36.6401 35.2191C36.2886 34.751 36.2989 34.1303 36.4913 33.4814C36.6855 32.8266 37.0811 32.0845 37.5911 31.3115C38.6129 29.7627 40.1319 28.0333 41.563 26.5358C42.6307 25.4178 43.854 24.2175 45.2109 22.9554C40.8728 23.3403 36.0154 23.5429 31.0565 23.5429C23.7631 23.5429 16.2356 23.089 10.5264 22.2126C7.67394 21.7747 5.26225 21.2295 3.55796 20.577C2.707 20.2512 2.01685 19.8929 1.53512 19.497C1.05422 19.1017 0.75 18.6416 0.75 18.1158C0.75 17.59 1.05422 17.1299 1.53511 16.7346C2.01684 16.3386 2.70699 15.9803 3.55795 15.6545C5.26224 15.0019 7.67393 14.4565 10.5264 14.0185C16.2356 13.1418 23.7631 12.6877 31.0565 12.6877C36.2743 12.6877 41.3363 12.9088 45.8255 13.3297C43.9225 11.8887 42.2346 10.5248 40.792 9.26252L40.7919 9.26242C39.2339 7.89768 37.5677 6.30969 36.4127 4.85773C35.8362 4.13298 35.3765 3.42908 35.1251 2.79422C34.8759 2.16509 34.8107 1.54785 35.1195 1.05076L35.1195 1.05072C35.4285 0.553499 36.0108 0.338062 36.6855 0.28223C37.3662 0.225894 38.2011 0.325739 39.1064 0.521072C40.9201 0.912399 43.082 1.70205 44.9954 2.49449C47.5645 3.55755 50.4692 4.94316 53.6334 6.61367L53.6356 6.61484L56.0486 7.91908L56.0486 7.91898L56.0551 7.92274L59.5243 9.93428L59.5243 9.93426L59.5272 9.93597C62.8852 11.943 66.341 14.0499 69.7988 16.1977L69.7988 16.1978L70.132 16.4048L70.4421 16.5976L70.1502 16.817L69.8374 17.0521C69.8374 17.0521 69.8374 17.0521 69.8373 17.0522C66.8302 19.3212 63.5762 21.7256 60.1669 24.2014L60.1659 24.2022L58.7145 25.2447L58.7146 25.2448L58.7087 25.2488L54.5889 28.0338ZM45.8687 31.9834L45.8688 31.9834C48.3087 30.71 51.0508 29.0896 54.0178 27.1666C54.0181 27.1664 54.0184 27.1663 54.0186 27.1661L56.2952 25.6613L59.5578 23.3607C59.5583 23.3603 59.5588 23.36 59.5593 23.3596C62.7347 21.0534 65.7755 18.8092 68.6066 16.6792C65.3696 14.674 62.1393 12.707 58.9967 10.8278C58.9966 10.8277 58.9965 10.8276 58.9963 10.8275L56.7771 9.5145L53.1456 7.52983C53.1451 7.52955 53.1446 7.52927 53.144 7.52899C50.0083 5.87359 47.1333 4.50282 44.5983 3.45468L44.5982 3.45462C40.9158 1.92935 38.7744 1.41168 37.5378 1.3126C36.2981 1.21326 36.0391 1.53693 36.0001 1.59876C35.9629 1.65939 35.7884 2.03391 36.4277 3.10096C37.0654 4.16549 38.4789 5.85582 41.4765 8.48061L41.4766 8.48068C43.2639 10.047 45.4419 11.7756 47.9486 13.6191L48.7567 14.2129L49.5088 14.7654L48.5812 14.6628L47.5839 14.5525C42.6939 14.0124 36.9786 13.7258 31.0565 13.7258C22.2376 13.7258 14.8727 14.3251 9.71777 15.202C7.13848 15.6408 5.12299 16.1474 3.75795 16.6785C3.07407 16.9446 2.56732 17.2117 2.23605 17.4702C1.89822 17.7339 1.78809 17.952 1.78809 18.1158C1.78809 18.2796 1.89822 18.4977 2.23605 18.7614C2.56731 19.0199 3.07406 19.2869 3.75794 19.5529C5.12298 20.084 7.13847 20.5904 9.71775 21.0291C14.8727 21.9058 22.2376 22.5048 31.0565 22.5048C36.5797 22.5048 41.972 22.2528 46.6485 21.7756L47.463 21.6926L48.2189 21.6156L47.6564 22.1264L47.05 22.6771L47.0498 22.6773C45.2477 24.3105 43.6547 25.8502 42.3133 27.2533C39.5606 30.1334 38.3029 31.9426 37.7623 33.0597C37.2187 34.1833 37.4291 34.5397 37.4707 34.595L37.4708 34.5951C37.5119 34.6499 37.7951 34.9516 39.0251 34.7421C40.2481 34.5337 42.3358 33.8285 45.8687 31.9834Z" fill="#333B41" stroke="#333B41" stroke-width="0.5"/>
</svg>

<svg width="71" height="37" fill="none" xmlns="http://www.w3.org/2000/svg"><path d="M54.589 28.034h0l-.004.003c-2.993 1.94-5.764 3.577-8.237 4.867-1.384.723-2.906 1.456-4.329 2.009-1.415.55-2.76.933-3.778.933-.664 0-1.253-.165-1.6-.627h0c-.352-.468-.342-1.089-.15-1.738.194-.654.59-1.397 1.1-2.17 1.022-1.548 2.54-3.278 3.972-4.775a87.16 87.16 0 013.648-3.58c-4.338.384-9.196.587-14.154.587-7.294 0-14.821-.454-20.53-1.33-2.853-.438-5.265-.983-6.969-1.636-.851-.326-1.541-.684-2.023-1.08-.48-.395-.785-.855-.785-1.381s.304-.986.785-1.381c.482-.396 1.172-.755 2.023-1.08 1.704-.653 4.116-1.198 6.968-1.636 5.71-.877 13.237-1.331 20.53-1.331 5.218 0 10.28.22 14.77.642a92.6 92.6 0 01-5.034-4.067h0c-1.558-1.365-3.224-2.953-4.38-4.405-.576-.725-1.035-1.429-1.287-2.064-.25-.629-.314-1.246-.005-1.743h0c.309-.498.89-.713 1.566-.769.68-.056 1.515.044 2.42.24 1.814.39 3.976 1.18 5.89 1.972 2.569 1.064 5.473 2.45 8.637 4.12h.003l2.413 1.305h0l.006.004 3.47 2.011h0l.002.002A706.749 706.749 0 0169.8 16.198h0l.333.207.31.193-.292.219-.313.235s0 0 0 0a661.664 661.664 0 01-9.67 7.15h-.001l-1.451 1.043h0l-.006.004-4.12 2.785zm-8.72 3.95h0c2.44-1.274 5.182-2.894 8.149-4.817 0 0 0 0 0 0l2.277-1.506 3.263-2.3.001-.001a671.25 671.25 0 009.048-6.68 720.94 720.94 0 00-9.61-5.852l-2.22-1.313-3.631-1.985-.002-.001c-3.136-1.655-6.01-3.026-8.546-4.074h0c-3.682-1.526-5.824-2.043-7.06-2.142-1.24-.1-1.499.224-1.538.286-.037.06-.212.435.428 1.502.637 1.064 2.05 2.755 5.049 5.38h0c1.787 1.566 3.965 3.295 6.472 5.138l.808.594.752.552-.928-.102-.997-.11c-4.89-.54-10.605-.827-16.528-.827-8.818 0-16.183.6-21.338 1.476-2.58.439-4.595.945-5.96 1.476-.684.267-1.19.534-1.522.792-.338.264-.448.482-.448.646 0 .164.11.382.448.645.331.259.838.526 1.522.792 1.365.531 3.38 1.037 5.96 1.476 5.155.877 12.52 1.476 21.338 1.476 5.524 0 10.916-.252 15.592-.73l.815-.082.756-.077-.563.51-.606.551h0a93.245 93.245 0 00-4.737 4.576c-2.752 2.88-4.01 4.69-4.55 5.807-.544 1.123-.334 1.48-.292 1.535h0c.04.055.324.357 1.554.147 1.223-.208 3.31-.913 6.844-2.759z" fill="#333B41" stroke="#333B41" stroke-width=".5"/></svg>
